X:1
T:Tennessee Waltz
R:waltz
M:3/4
L:1/8
K:D
Q:1/4=100
|:D>E|F2 A2 D>E|F2 A2 d>e|f4 fe|d2 B2 Bc|
d2 A2 F2|B2 BA F2|E6-|E4 D>E|
F2 A2 D>E|FA A2 d>e|f2 fg fe|d2 B2 Bc|
d2 A2 F2|GAG F2 E2|D6-|D4:|
|:d>e|f2 fa fe|e4 gfe|d2 B2 d2|A2 AA Bc|
d2 A2 F2|B2 BA FA|E2 EF GF|E2 ED D>E|
FA A2 D>E|F2 A2 d>e|f2 fa fe|d2 BA Bc|
d2 ABA F2|GAG FGF E2|D6-|D4:|
